X:4
T:Pipe On The Hob, The
M:6/8
L:1/8
R:jig
K:Ador
B|c2c edc| edc BAG|ABA g3|eaa ged|
c3 edc|edc deg|age edB| ABA A3||
c2c d2d|edc AGE|c3 d2d|edc A2B|
cBc dcd|ede gab|age dBe|ABA A3|]
g2g gea|age dBA|ABA g2e|aba gef|
g3 gea|age deg|age dBe|ABA A3||
c2c d2d|edc AGE|c3 d2d|edc A2B|
cBc dcd|ede gab|age dBe|ABA A2|]
